src/asset/img/icon/item_category/body.svg

<svg xmlns:xlink="http://www.w3.org/1999/xlink" height="18.8" width="25" xmlns="http://www.w3.org/2000/svg"><use height="67.1" transform="matrix(.2791 0 0 .2796 -.001 .02)" width="89.5" xlink:href="#a"/><defs><use height="67.1" width="89.5" xlink:href="#b" id="a"/><g id="b" fill-rule="evenodd"><path d="m57.45 47.15-2.65.65-1.15-2 .35.25q1.6 1.15 3.45 1.1M-6 48.8q-.95-.15-2.5-2.5l2.5 2.5M3.75 74l.85.45h-.85V74m9.45.65h3.95l4.15.15-8.1-.15" fill="#6e89a4" transform="translate(19.35 -12.05)"/><path d="M4.55 46.25h2.7l-1.6.6-.5.8-.55-.9-.3-.5h.25m12.35 0q23.7.05 29.25.2l.15 2.75-.55-2.35-11.1-.4H23.3l-6.4-.2m27.75-12.1q-.35-.65-1.05-1l1 .25.05.75" fill="#98b3ce" transform="translate(19.35 -12.05)"/><path d="m61.5 45 .6-.45q4.2-3.3 4.8-6.35.75-4.6-11.15-16.5l-4.2-4.45q-3.1-2.85-5-2.65-2.1.2-5.75 4-4.05 4.6-5.4 5.2-9.6 5-22.45-2.7L6.6 17.25Q3.95 16.5-.1 19.4l-4.05 3.75-1.9 1.25q-9.6 6.7-9.2 7.45l.1.1-.3.1q4.05 9.6 6.6 13.7l-.1.1.45.45q1.55 2.35 2.5 2.5l.15.15q1.7 0 4.4-1.35 3.05-1.55 4.6-1.75L3 44.6l1.3-.65.25 2.3H4.3l.3.5q.3 4.9-.3 12.35-.7 8.15-.65 12.75-.9.5-.7 1.1.2.6.8 1.05v.45h.85l6.25.4 2.35-.2 8.1.15 2 .05h16.15l5.7-.55h1.2q1.15-.2 1.7-2.7.4-2.3 0-6.35-.75-5.15-.75-6.5l.2-16.15h.85q2.1.9 5.3 3.2l1.15 2 2.65-.65q2.1-.1 4.45-1.85l-.4-.3m-9.2-31.95q3.85 2.3 7.65 8.05 5 7.7 6.55 9.25 8.05 9-1.75 17.05-7.65 6.15-13.4 1.75-1.55 5.15-.8 13.8l.8 14q-6.35 2.5-16.5 2.15l-16.9-.8-17.1-.55q-.4-11.9.6-29.4-.8.8-3.85 2.3-2.5 1.15-3.25 2.7-5-.95-13.65-20.15-.6-1.55 8.65-8.65L.1 16.5q4-3.25 6.15-3.65 1.5-.35 2.85.4l.6.55 2.1 1.95q3.25 3.05 5.95 4.6 5 2.7 10.95 2.1 3.65-.4 11.9-6.9 6.7-5.4 11.7-2.5" fill="#3f5a75" fill-opacity=".922" transform="translate(19.35 -12.05)"/><path d="M-4.15 23.15-.1 19.4q4.05-2.9 6.7-2.15l6.35 3.85q12.85 7.7 22.45 2.7 1.35-.6 5.4-5.2 3.65-3.8 5.75-4 1.9-.2 5 2.65l4.2 4.45q11.9 11.9 11.15 16.5-.6 3.05-4.8 6.35l-.6.45q-3.2-2.65-13.45-8.9l-1.7-1.75v7.7q.85.05 2 .55h-.85l-.2 16.15q0 1.35.75 6.5.4 4.05 0 6.35-.55 2.5-1.7 2.7h-1.2l.6-.2q1.75-.95 1.55-5.4l.2-4.4q0-3.25-1.15-3.25 0 5.55-4.05 7.65-2.85 1.55-8.8 1.55-9.4-.2-16.9 0-10.55.3-12.95 1.6-.05-4.6.65-12.75.6-7.45.3-12.35l.55.9q-.55 1.45-.1 4.5-.35 2.4.6 5.65 7.85.75 20.55.35l20.55-.95-.25-4.4h.05l-.25-3.6-.15-2.75q-5.55-.15-29.25-.2l-9.15-.2-.5.2h-2.7l-.25-2.3-1.3.65q-.55-5.05-.25-7.95L.85 38.6q-.95 1.9-4.6 4-4.15 2.35-5.1 3.15-2.55-4.1-6.6-13.7l.3-.1.85.5q4 .55 12.65-5.2 9.05-6.35 7.1-10-1.55.35-9.6 5.9m55.85-.7L56.9 29l4.25 3.8q2.45 2.15 3.8 3.85.8-3.85-5.55-10.35-7.3-6.7-9-9.05l-2.5-1.15q-1.95.4-2.3 1 2.85 1.5 6.1 5.35m-7 14.4h.1q.35-1.7-.15-2.7l-.05-.75-1-.25-1.5-.5-.5.05-14.65-1.05-18.05.8-2.95.75H5.1q-.35.8-.35 1.75-.35 2.25-.05 5.95 20.15.35 40.1 0l-.1-4.05" fill="#3f5a75" fill-opacity=".702" transform="translate(19.35 -12.05)"/><path d="M-8.85 45.75q.95-.8 5.1-3.15 3.65-2.1 4.6-4l1.9-1.95q-.3 2.9.25 7.95l.15 1.25q-1.55.2-4.6 1.75-2.7 1.35-4.4 1.35L-6 48.8l-2.5-2.5-.45-.45.1-.1m12.5 26.1q2.4-1.3 12.95-1.6 7.5-.2 16.9 0 5.95 0 8.8-1.55 4.05-2.1 4.05-7.65 1.15 0 1.15 3.25l-.2 4.4q.2 4.45-1.55 5.4l-.6.2-5.7.55H23.3l-2-.05-4.15-.15H13.2l-2.35.2-6.25-.4-.85-.45q-.6-.45-.8-1.05-.2-.6.7-1.1m44.7-29.25q-1.15-.5-2-.55v-7.7l1.7 1.75Q58.3 42.35 61.5 45l.4.3q-2.35 1.75-4.45 1.85-1.85.05-3.45-1.1l-.35-.25q-3.2-2.3-5.3-3.2" fill="#3f5a75" fill-opacity=".8" transform="translate(19.35 -12.05)"/><path d="M-4.15 23.15q8.05-5.55 9.6-5.9 1.95 3.65-7.1 10-8.65 5.75-12.65 5.2l-.85-.5-.1-.1q-.4-.75 9.2-7.45l1.9-1.25M46.5 52.8l.25 4.4-20.55.95q-12.7.4-20.55-.35-.95-3.25-.6-5.65l.2 1.2Q18.9 53 46.5 52.8m5.2-30.35q-3.25-3.85-6.1-5.35.35-.6 2.3-1l2.5 1.15q1.7 2.35 9 9.05 6.35 6.5 5.55 10.35-1.35-1.7-3.8-3.85L56.9 29l-5.2-6.55M4.75 34.95l.15 1.5q22 .6 39.8.4l.1 4.05q-19.95.35-40.1 0-.3-3.7.05-5.95" fill="#3f5a75" fill-opacity=".2" transform="translate(19.35 -12.05)"/></g></defs></svg>

<?xml version="1.0" encoding="UTF-8" standalone="no"?>
<svg xmlns:xlink="http://www.w3.org/1999/xlink" height="18.8px" width="25.0px" xmlns="http://www.w3.org/2000/svg">
  <g transform="matrix(1.0, 0.0, 0.0, 1.0, 0.0, -3.35)">
    <use height="67.1" transform="matrix(0.2791, 0.0, 0.0, 0.2796, -0.0014, 3.3692)" width="89.5" xlink:href="#sprite0"/>
  </g>
  <defs>
    <g id="sprite0" transform="matrix(1.0, 0.0, 0.0, 1.0, 19.35, -12.05)">
      <use height="67.1" transform="matrix(1.0, 0.0, 0.0, 1.0, -19.35, 12.05)" width="89.5" xlink:href="#shape0"/>
    </g>
    <g id="shape0" transform="matrix(1.0, 0.0, 0.0, 1.0, 19.35, -12.05)">
      <path d="M57.45 47.15 L54.8 47.8 53.65 45.8 54.0 46.05 Q55.6 47.2 57.45 47.15 M-6.0 48.8 Q-6.95 48.65 -8.5 46.3 L-6.0 48.8 M3.75 74.0 L4.6 74.45 3.75 74.45 3.75 74.0 M13.2 74.65 L17.15 74.65 21.3 74.8 13.2 74.65" fill="#6e89a4" fill-rule="evenodd" stroke="none"/>
      <path d="M4.55 46.25 L7.25 46.25 5.65 46.85 5.15 47.65 4.6 46.75 4.3 46.25 4.55 46.25 M16.9 46.25 Q40.6 46.3 46.15 46.45 L46.3 49.2 45.75 46.85 34.65 46.45 23.3 46.45 16.9 46.25 M44.65 34.15 Q44.3 33.5 43.6 33.15 L44.6 33.4 44.65 34.15" fill="#98b3ce" fill-rule="evenodd" stroke="none"/>
      <path d="M61.5 45.0 L62.1 44.55 Q66.3 41.25 66.9 38.2 67.65 33.6 55.75 21.7 L51.55 17.25 Q48.45 14.4 46.55 14.6 44.45 14.8 40.8 18.6 36.75 23.2 35.4 23.8 25.8 28.8 12.95 21.1 L6.6 17.25 Q3.95 16.5 -0.1 19.4 L-4.15 23.15 -6.05 24.4 Q-15.65 31.1 -15.25 31.85 L-15.15 31.95 -15.45 32.05 Q-11.4 41.65 -8.85 45.75 L-8.95 45.85 -8.5 46.3 Q-6.95 48.65 -6.0 48.8 L-5.85 48.95 Q-4.15 48.95 -1.45 47.6 1.6 46.05 3.15 45.85 L3.0 44.6 4.3 43.95 4.55 46.25 4.3 46.25 4.6 46.75 Q4.9 51.65 4.3 59.1 3.6 67.25 3.65 71.85 2.75 72.35 2.95 72.95 3.15 73.55 3.75 74.0 L3.75 74.45 4.6 74.45 10.85 74.85 13.2 74.65 21.3 74.8 23.3 74.85 23.5 74.85 32.5 74.85 39.45 74.85 45.15 74.3 46.35 74.3 Q47.5 74.1 48.05 71.6 48.45 69.3 48.05 65.25 47.3 60.1 47.3 58.75 L47.5 42.6 48.35 42.6 Q50.45 43.5 53.65 45.8 L54.8 47.8 57.45 47.15 Q59.55 47.05 61.9 45.3 L61.5 45.0 M52.3 13.05 Q56.15 15.35 59.95 21.1 64.95 28.8 66.5 30.35 74.55 39.35 64.75 47.4 57.1 53.55 51.35 49.15 49.8 54.3 50.55 62.95 L51.35 76.95 Q45.0 79.45 34.85 79.1 L17.95 78.3 0.85 77.75 Q0.45 65.85 1.45 48.35 0.65 49.15 -2.4 50.65 -4.9 51.8 -5.65 53.35 -10.65 52.4 -19.3 33.2 -19.9 31.65 -10.65 24.55 L0.1 16.5 Q4.1 13.25 6.25 12.85 7.75 12.5 9.1 13.25 L9.7 13.8 11.8 15.75 Q15.05 18.8 17.75 20.35 22.75 23.05 28.7 22.45 32.35 22.05 40.6 15.55 47.3 10.15 52.3 13.05" fill="#3f5a75" fill-opacity="0.92156863" fill-rule="evenodd" stroke="none"/>
      <path d="M-4.15 23.15 L-0.1 19.4 Q3.95 16.5 6.6 17.25 L12.95 21.1 Q25.8 28.8 35.4 23.8 36.75 23.2 40.8 18.6 44.45 14.8 46.55 14.6 48.45 14.4 51.55 17.25 L55.75 21.7 Q67.65 33.6 66.9 38.2 66.3 41.25 62.1 44.55 L61.5 45.0 Q58.3 42.35 48.05 36.1 L46.35 34.35 46.35 42.05 Q47.2 42.1 48.35 42.6 L47.5 42.6 47.3 58.75 Q47.3 60.1 48.05 65.25 48.45 69.3 48.05 71.6 47.5 74.1 46.35 74.3 L45.15 74.3 45.75 74.1 Q47.5 73.15 47.3 68.7 L47.5 64.3 Q47.5 61.05 46.35 61.05 46.35 66.6 42.3 68.7 39.45 70.25 33.5 70.25 24.1 70.05 16.6 70.25 6.05 70.55 3.65 71.85 3.6 67.25 4.3 59.1 4.9 51.65 4.6 46.75 L5.15 47.65 Q4.6 49.1 5.05 52.15 4.7 54.55 5.65 57.8 13.5 58.55 26.2 58.15 L46.75 57.2 46.5 52.8 46.55 52.8 46.3 49.2 46.15 46.45 Q40.6 46.3 16.9 46.25 L7.75 46.05 7.25 46.25 4.55 46.25 4.3 43.95 3.0 44.6 Q2.45 39.55 2.75 36.65 L0.85 38.6 Q-0.1 40.5 -3.75 42.6 -7.9 44.95 -8.85 45.75 -11.4 41.65 -15.45 32.05 L-15.15 31.95 -14.3 32.45 Q-10.3 33.0 -1.65 27.25 7.4 20.9 5.45 17.25 3.9 17.6 -4.15 23.15 M51.7 22.45 L56.9 29.0 61.15 32.8 Q63.6 34.95 64.95 36.65 65.75 32.8 59.4 26.3 52.1 19.6 50.4 17.25 L47.9 16.1 Q45.95 16.5 45.6 17.1 48.45 18.6 51.7 22.45 M44.7 36.85 L44.8 36.85 Q45.15 35.15 44.65 34.15 L44.6 33.4 43.6 33.15 42.1 32.65 41.6 32.7 26.95 31.65 8.9 32.45 5.95 33.2 5.1 33.2 Q4.75 34.0 4.75 34.95 4.4 37.2 4.7 40.9 24.85 41.25 44.8 40.9 L44.7 36.85" fill="#3f5a75" fill-opacity="0.7019608" fill-rule="evenodd" stroke="none"/>
      <path d="M-8.85 45.75 Q-7.9 44.95 -3.75 42.6 -0.1 40.5 0.85 38.6 L2.75 36.65 Q2.45 39.55 3.0 44.6 L3.15 45.85 Q1.6 46.05 -1.45 47.6 -4.15 48.95 -5.85 48.95 L-6.0 48.8 -8.5 46.3 -8.95 45.85 -8.85 45.75 M3.65 71.85 Q6.05 70.55 16.6 70.25 24.1 70.05 33.5 70.25 39.45 70.25 42.3 68.7 46.35 66.6 46.35 61.05 47.5 61.05 47.5 64.3 L47.3 68.7 Q47.5 73.15 45.75 74.1 L45.15 74.3 39.45 74.85 32.5 74.85 23.5 74.85 23.3 74.85 21.3 74.8 17.15 74.65 13.2 74.65 10.85 74.85 4.6 74.45 3.75 74.0 Q3.15 73.55 2.95 72.95 2.75 72.35 3.65 71.85 M48.35 42.6 Q47.2 42.1 46.35 42.05 L46.35 34.35 48.05 36.1 Q58.3 42.35 61.5 45.0 L61.9 45.3 Q59.55 47.05 57.45 47.15 55.6 47.2 54.0 46.05 L53.65 45.8 Q50.45 43.5 48.35 42.6" fill="#3f5a75" fill-opacity="0.8" fill-rule="evenodd" stroke="none"/>
      <path d="M-4.15 23.15 Q3.9 17.6 5.45 17.25 7.4 20.9 -1.65 27.25 -10.3 33.0 -14.3 32.45 L-15.15 31.95 -15.25 31.85 Q-15.65 31.1 -6.05 24.4 L-4.15 23.15 M46.5 52.8 L46.75 57.2 26.2 58.15 Q13.5 58.55 5.65 57.8 4.7 54.55 5.05 52.15 L5.25 53.35 Q18.9 53.0 46.5 52.8 M51.7 22.45 Q48.45 18.6 45.6 17.1 45.95 16.5 47.9 16.1 L50.4 17.25 Q52.1 19.6 59.4 26.3 65.75 32.8 64.95 36.65 63.6 34.95 61.15 32.8 L56.9 29.0 51.7 22.45 M4.75 34.95 L4.9 36.45 Q26.9 37.05 44.7 36.85 L44.8 40.9 Q24.85 41.25 4.7 40.9 4.4 37.2 4.75 34.95" fill="#3f5a75" fill-opacity="0.2" fill-rule="evenodd" stroke="none"/>
    </g>
  </defs>
</svg>
